svg/furkot/icomoon/earth.svg

<svg height="512" viewBox="0 0 512 512" width="512"><path d="m437.02 74.981c48.351 48.352 74.98 112.64 74.98 181.02s-26.629 132.667-74.98 181.019c-48.353 48.351-112.64 74.98-181.02 74.98s-132.667-26.629-181.02-74.98c-48.351-48.352-74.98-112.639-74.98-181.019s26.627-132.668 74.98-181.02 112.64-74.981 181.02-74.981 132.667 26.629 181.02 74.981zm-22.628 339.412c31.529-31.53 52.493-70.804 61.136-113.531-6.737 9.918-13.181 13.597-17.172-8.603-4.11-36.195-37.354-13.074-58.258-25.93-22.002 14.829-71.453-28.831-63.049 20.412 12.967 22.211 70.004-29.725 41.574 17.271-18.137 32.808-66.321 105.466-60.053 143.129.791 54.872-56.067 11.442-75.657-6.76-13.178-36.46-4.491-100.187-38.949-118.043-37.401-1.624-69.502-5.023-83.997-46.835-8.723-29.914 9.282-74.447 41.339-81.322 46.925-29.483 63.687 34.527 107.695 35.717 13.664-14.297 50.908-18.843 53.996-34.875-28.875-5.095 36.634-24.279-2.764-35.191-21.735 2.556-35.739 22.537-24.184 39.479-42.119 9.821-43.468-60.952-83.955-38.629-1.029 35.295-66.111 11.443-22.518 4.286 14.978-6.544-24.43-25.508-3.14-22.062 10.458-.568 45.666-12.906 36.138-21.201 19.605-12.17 36.08 29.145 55.269-.941 13.854-23.133-5.81-27.404-23.175-15.678-9.79-10.962 17.285-34.638 41.166-44.869 7.959-3.41 15.561-5.268 21.373-4.742 12.029 13.896 34.275 16.303 35.439-1.671-29.791-14.267-62.638-21.804-96.646-21.804-48.811 0-95.235 15.512-133.654 44.195 10.325 4.73 16.186 10.619 6.239 18.148-7.728 23.027-39.085 53.938-66.612 49.562-14.293 24.648-23.706 51.803-27.73 80.264 23.056 7.628 28.372 22.725 23.418 27.775-11.748 10.244-18.968 24.765-22.688 40.661 7.505 45.918 29.086 88.238 62.635 121.788 42.308 42.307 98.559 65.607 158.392 65.607 59.832 0 116.084-23.3 158.392-65.607z"/></svg>

<svg width="512" height="512" viewBox="0 0 512 512" data-tags="earth, globe, web, internet, sphere, planet" style="margin-left:8px;margin-top:8px"><path d="M 437.02,74.981 C 485.371,123.333 512.00,187.621 512.00,256.001 C 512.00,324.381 485.371,388.668 437.02,437.02 C 388.667,485.371 324.38,512.00 256.00,512.00 C 187.62,512.00 123.333,485.371 74.98,437.02 C 26.629,388.668 0.00,324.381 0.00,256.001 C 0.00,187.621 26.627,123.333 74.98,74.981 C 123.333,26.629 187.62,0.00 256.00,0.00 C 324.38,0.00 388.667,26.629 437.02,74.981 Z M 414.392,414.393 C 445.921,382.863 466.885,343.589 475.528,300.862 C 468.791,310.78 462.347,314.459 458.356,292.259 C 454.246,256.064 421.002,279.185 400.098,266.329 C 378.096,281.158 328.645,237.498 337.049,286.741 C 350.016,308.952 407.053,257.016 378.623,304.012 C 360.486,336.82 312.302,409.478 318.57,447.141 C 319.361,502.013 262.503,458.583 242.913,440.381 C 229.735,403.921 238.422,340.194 203.964,322.338 C 166.563,320.714 134.462,317.315 119.967,275.503 C 111.244,245.589 129.249,201.056 161.306,194.181 C 208.231,164.698 224.993,228.708 269.001,229.898 C 282.665,215.601 319.909,211.055 322.997,195.023 C 294.122,189.928 359.631,170.744 320.233,159.832 C 298.498,162.388 284.494,182.369 296.049,199.311 C 253.93,209.132 252.581,138.359 212.094,160.682 C 211.065,195.977 145.983,172.125 189.576,164.968 C 204.554,158.424 165.146,139.46 186.436,142.906 C 196.894,142.338 232.102,130.00 222.574,121.705 C 242.179,109.535 258.654,150.85 277.843,120.764 C 291.697,97.631 272.033,93.36 254.668,105.086 C 244.878,94.124 271.953,70.448 295.834,60.217 C 303.793,56.807 311.395,54.949 317.207,55.475 C 329.236,69.371 351.482,71.778 352.646,53.804 C 322.855,39.537 290.008,32.00 256.00,32.00 C 207.189,32.00 160.765,47.512 122.346,76.195 C 132.671,80.925 138.532,86.814 128.585,94.343 C 120.857,117.37 89.50,148.281 61.973,143.905 C 47.68,168.553 38.267,195.708 34.243,224.169 C 57.299,231.797 62.615,246.894 57.661,251.944 C 45.913,262.188 38.693,276.709 34.973,292.605 C 42.478,338.523 64.059,380.843 97.608,414.393 C 139.916,456.70 196.167,480.00 256.00,480.00 C 315.832,480.00 372.084,456.70 414.392,414.393 Z"/></svg>
